svg/business/schedule_line.svg

<?xml version="1.0" encoding="UTF-8"?>
<svg width="24px" height="24px" viewBox="0 0 24 24" version="1.1" xmlns="http://www.w3.org/2000/svg" xmlns:xlink="http://www.w3.org/1999/xlink">
    <title>schedule_line</title>
    <g id="页面-1" stroke="none" stroke-width="1" fill="none" fill-rule="evenodd">
        <g id="Business" transform="translate(-864.000000, 0.000000)" fill-rule="nonzero">
            <g id="schedule_line" transform="translate(864.000000, 0.000000)">
                <path d="M24,0 L24,24 L0,24 L0,0 L24,0 Z M12.5934901,23.257841 L12.5819402,23.2595131 L12.5108777,23.2950439 L12.4918791,23.2987469 L12.4918791,23.2987469 L12.4767152,23.2950439 L12.4056548,23.2595131 C12.3958229,23.2563662 12.3870493,23.2590235 12.3821421,23.2649074 L12.3780323,23.275831 L12.360941,23.7031097 L12.3658947,23.7234994 L12.3769048,23.7357139 L12.4804777,23.8096931 L12.4953491,23.8136134 L12.4953491,23.8136134 L12.5071152,23.8096931 L12.6106902,23.7357139 L12.6232938,23.7196733 L12.6232938,23.7196733 L12.6266527,23.7031097 L12.609561,23.275831 C12.6075724,23.2657013 12.6010112,23.2592993 12.5934901,23.257841 L12.5934901,23.257841 Z M12.8583906,23.1452862 L12.8445485,23.1473072 L12.6598443,23.2396597 L12.6498822,23.2499052 L12.6498822,23.2499052 L12.6471943,23.2611114 L12.6650943,23.6906389 L12.6699349,23.7034178 L12.6699349,23.7034178 L12.678386,23.7104931 L12.8793402,23.8032389 C12.8914285,23.8068999 12.9022333,23.8029875 12.9078286,23.7952264 L12.9118235,23.7811639 L12.8776777,23.1665331 C12.8752882,23.1545897 12.8674102,23.1470016 12.8583906,23.1452862 L12.8583906,23.1452862 Z M12.1430473,23.1473072 C12.1332178,23.1423925 12.1221763,23.1452606 12.1156365,23.1525954 L12.1099173,23.1665331 L12.0757714,23.7811639 C12.0751323,23.7926639 12.0828099,23.8018602 12.0926481,23.8045676 L12.108256,23.8032389 L12.3092106,23.7104931 L12.3186497,23.7024347 L12.3186497,23.7024347 L12.3225043,23.6906389 L12.340401,23.2611114 L12.337245,23.2485176 L12.337245,23.2485176 L12.3277531,23.2396597 L12.1430473,23.1473072 Z" id="MingCute" fill-rule="nonzero"></path>
                <path d="M16,3 C16.5523,3 17,3.44772 17,4 L17,4 L17,5 L19,5 C20.1046,5 21,5.89543 21,7 L21,7 L21,19 C21,20.1046 20.1046,21 19,21 L19,21 L5,21 C3.89543,21 3,20.1046 3,19 L3,19 L3,7 C3,5.89543 3.89543,5 5,5 L5,5 L7,5 L7,4 C7,3.44772 7.44771,3 8,3 C8.55229,3 9,3.44772 9,4 L9,4 L9,5 L15,5 L15,4 C15,3.44772 15.4477,3 16,3 Z M19,7 L5,7 L5,19 L19,19 L19,7 Z M14.8241,9.37872 C15.2146,8.9882 15.8478,8.9882 16.2383,9.37872 C16.6289,9.76924 16.6289,10.4024 16.2383,10.7929 L16.2383,10.7929 L11.2957,15.7356 C10.9012,16.13 10.2617,16.13 9.86731,15.7356 L9.86731,15.7356 L7.75306,13.6214 C7.36253,13.2308 7.36253,12.5977 7.75306,12.2071 C8.14358,11.8166 8.77675,11.8166 9.16727,12.2071 L9.16727,12.2071 L10.5815,13.6214 Z" id="形状结合" fill="#09244B"></path>
            </g>
        </g>
    </g>
</svg>

<svg xmlns="http://www.w3.org/2000/svg" width="24" height="24"><g fill="none" fill-rule="nonzero"><path d="M24 0v24H0V0zM12.593 23.258l-.011.002-.071.035-.02.004-.014-.004-.071-.035c-.01-.004-.019-.001-.024.005l-.004.01-.017.428.005.02.01.013.104.074.015.004.012-.004.104-.074.012-.016.004-.017-.017-.427c-.002-.01-.009-.017-.017-.018m.265-.113-.013.002-.185.093-.01.01-.003.011.018.43.005.012.008.007.201.093c.012.004.023 0 .029-.008l.004-.014-.034-.614c-.003-.012-.01-.02-.02-.022m-.715.002a.023.023 0 0 0-.027.006l-.006.014-.034.614c0 .012.007.02.017.024l.015-.002.201-.093.01-.008.004-.011.017-.43-.003-.012-.01-.01z"/><path fill="#09244B" d="M16 3a1 1 0 0 1 1 1v1h2a2 2 0 0 1 2 2v12a2 2 0 0 1-2 2H5a2 2 0 0 1-2-2V7a2 2 0 0 1 2-2h2V4a1 1 0 1 1 2 0v1h6V4a1 1 0 0 1 1-1m3 4H5v12h14zm-4.176 2.379a1 1 0 0 1 1.414 1.414l-4.942 4.943a1.01 1.01 0 0 1-1.429 0L7.753 13.62a1 1 0 0 1 1.414-1.414l1.415 1.414Z"/></g></svg>
